X:45
T:Mr. Duff (of Fetteresso's) Birth day
C:R. Petrie
S:Petrie's Second Collection of Strathspey Reels and Country Dances &c.
Z:Steve Wyrick , 6/11/04
N:Petrie's Second Collection, page 16
L:1/8
M:C
R:Reel
K:F
f|:cF d/c/B/A/ cFAf|cF A/B/c/A/ BGGB|cF d/c/B/A/ cFAf|edec f2 fd:|
 |:cAfA        cfAf|cAfA        gGGA|cFcA        cFAf|edec f2 fd:|
